!!!!SEGMENT: pl-cz--iii-623--001-002_raszek-waclaw--nieszpory-confitebor.krn
!!!cenid: 18xx:1005
!!!COM: Raszek, Wacław
!!!COM-rismid: pe30020314
!!!CDT: >1848->1848
!!!CNT:
!!!OPR: Nieszpory
!!!OTL: Confitebor
!!!OMV: 002
!!!PDT:
!!!AGN: Sacred
!!!SMS-siglum: PL-CZ
!!!SMS-shelfmark: III-623
!!!SMS-shelfwork: 001-002 M
!!!SMS-variant:
!!!SMS-altvar:
!!!NIFC-rismid: 300001052
!!!URL-scan: http://repozytorium.nifc.pl/skany/pl-cz-nut--iii-623
!!!ONB-nifc: UWAGA: części Nieszporów: Dixit Dominus, Confitebor, Beatus vir, Laudate pueri, In exitu, Laudate Dominum, Iste confessor, Magnificat, Salve Regina. Uwaga: w Canto 1,2 i Tenorze zaburzona kolejność części
!!!OMD: Moderato
!!!key: B-
**kern	**kern	**text	**text	**text	**kern	**text	**text	**text	**kern	**text	**text	**text	**kern	**text	**text	**text	**kern	**kern
*part7	*part6	*part6	*part6	*part6	*part5	*part5	*part5	*part5	*part4	*part4	*part4	*part4	*part3	*part3	*part3	*part3	*part2	*part1
*staff7	*staff6	*staff6	*staff6	*staff6	*staff5	*staff5	*staff5	*staff5	*staff4	*staff4	*staff4	*staff4	*staff3	*staff3	*staff3	*staff3	*staff2	*staff1
*I"Baſso.[Organo]	*I"Baſso.	*	*	*	*I"Tenore	*	*	*	*I"Canto Secondo	*	*	*	*I"Canto Primo	*	*	*	*I"Clarinetto Secondo. in C:	*I"Clarinetto Primo in C:
*I'b	*I'B	*	*	*	*I'T	*	*	*	*I'S 2	*	*	*	*I'S 1	*	*	*	*I'cl 2 in B|b	*I'cl 1 in C
*Iorgan	*Ibass	*	*	*	*Itenor	*	*	*	*Isoprn	*	*	*	*Isoprn	*	*	*	*Iclars	*Iclars
*ICklav	*ICvox	*	*	*	*ICvox	*	*	*	*ICvox	*	*	*	*ICvox	*	*	*	*ICww	*ICww
*clefF4	*clefF4	*	*	*	*clefC4	*	*	*	*clefC1	*	*	*	*clefC1	*	*	*	*clefG2	*clefG2
*	*	*	*	*	*	*	*	*	*	*	*	*	*	*	*	*	*ITrd1c2	*ITrd1c2
*k[b-e-]	*k[b-e-]	*	*	*	*k[b-e-]	*	*	*	*k[b-e-]	*	*	*	*k[b-e-]	*	*	*	*k[b-e-]	*k[b-e-]
*B-:	*B-:	*	*	*	*B-:	*	*	*	*B-:	*	*	*	*B-:	*	*	*	*	*
*M2/2	*M2/2	*	*	*	*M2/2	*	*	*	*M2/2	*	*	*	*M2/2	*	*	*	*M2/2	*M2/2
*met(c|)	*met(c|)	*	*	*	*met(c|)	*	*	*	*met(c|)	*	*	*	*met(c|)	*	*	*	*met(c|)	*met(c|)
*>[A,A,A]	*>[A,A,A]	*	*	*	*>[A,A,A]	*	*	*	*>[A,A,A]	*	*	*	*>[A,A,A]	*	*	*	*>[A,A,A]	*>[A,A,A]
=1	=1	=1	=1	=1	=1	=1	=1	=1	=1	=1	=1	=1	=1	=1	=1	=1	=1	=1
*>A	*>A	*	*	*	*>A	*	*	*	*>A	*	*	*	*>A	*	*	*	*>A	*>A
*2\right	*2\right	*	*	*	*	*	*	*	*	*	*	*	*	*	*	*	*	*
!	!	!	!	!	!	!	!	!	!	!	!	!	!	!	!	!	!LO:TX:a:t=1.	!LO:TX:a:t=1.
2F\	2F\	Ca-	Co	Pan	2F/	Ca-	Co	Pan	2f/	Ca-	Co	Pan	2f/	Ca-	Co	Pan	1r	1r
4E-\	4E-\	-łym	po-	do-	4G/	-łym	po-	do-	4g/	-łym	po-	do-	4g/	-łym	po-	do-	.	.
4C\	4C/	ćie	-cznie	-bro-	4e-\	cie	-cznie	-bro-	4f/	cię	-cznie	-bro-	4a/	cie	-cznie	-bro-	.	.
=2	=2	=2	=2	=2	=2	=2	=2	=2	=2	=2	=2	=2	=2	=2	=2	=2	=2	=2
*	*	*	*	*	*2\right	*	*	*	*	*	*	*	*2\right	*	*	*	*	*
!	!	!	!	!	!	!	!	!	!	!	!	!	!	!	!	!	!LO:TX:a:i:t=in B	!LO:TX:a:i:t=in B
4BB-/	2BB-/	Ser-	wszyst-	-tli-	2d\	Ser-	wszyst-	-tli-	2f/	Ser-	wszyst-	-tli-	2b-\	Ser-	wsy-	-tli-	2r	8r
.	.	.	.	.	.	.	.	.	.	.	.	.	.	.	.	.	.	8dd\L
4D/	.	.	.	.	.	.	.	.	.	.	.	.	.	.	.	.	.	8ff\
.	.	.	.	.	.	.	.	.	.	.	.	.	.	.	.	.	.	8dd\J
*	*2\right	*	*	*	*	*	*	*	*	*	*	*	*	*	*	*	*	*
4F/	2B-\	-cem	-ko	-wy	2d\	-cem	-ko	-wy	2f/	-cem	-ko	-wy	2b-\	-cem	-stko	-wy	8r	4b-\
.	.	.	.	.	.	.	.	.	.	.	.	.	.	.	.	.	8d/L	.
4D/	.	.	.	.	.	.	.	.	.	.	.	.	.	.	.	.	8f/	4r
.	.	.	.	.	.	.	.	.	.	.	.	.	.	.	.	.	8d/J	.
!	!	!	!	!	!LO:LB:g=original	!	!	!	!LO:LB:g=original	!	!	!	!	!	!	!	!	!
=3	=3	=3	=3	=3	=3	=3	=3	=3	=3	=3	=3	=3	=3	=3	=3	=3	=3	=3
4BB-/	4BB-/	bę-	peł-	pan	4d\	bę-	peł-	Pan	4f/	bę-	peł-	pan	4b-\	bę-	peł-	Pan	8B-/L	8r
.	.	.	.	.	.	.	.	.	.	.	.	.	.	.	.	.	8d/	8ff\L
4F/	4F/	-dę	-ne	to	4c\	-dę	-ne	to	4f/	-dę	-ne	to	4a\	-dę	-ne	to	8A/	8ff\
.	.	.	.	.	.	.	.	.	.	.	.	.	.	.	.	.	8c/J	8ff\J
!	!	!	!	!	!	!	!	!	!	!	!	!	!LO:LB:g=original	!	!	!	!	!
=-	=-	=-	=-	=-	=-	=-	=-	=-	=-	=-	=-	=-	=-	=-	=-	=-	=-	=-
4D/	4D/	chwa-	iest	mi-	4B-\	chwa-	iest	mi-	4f/	chwa-	iest	mi-	4b-\	chwa-	iest	mi-	8f/L	8b-\L
.	.	.	.	.	.	.	.	.	.	.	.	.	.	.	.	.	8b-/	8ff\
4C/	4C/	-lic	za-	-ło-	4A\	-lić	za-	-ło-	4f/	-lić	za-	-ło-	4cc\	-lić	za-	-ło-	8a/	8cc\
.	.	.	.	.	.	.	.	.	.	.	.	.	.	.	.	.	8f/J	8ff\J
!	!LO:LB:g=original	!	!	!	!	!	!	!	!	!	!	!	!	!	!	!	!	!
=4	=4	=4	=4	=4	=4	=4	=4	=4	=4	=4	=4	=4	=4	=4	=4	=4	=4	=4
4BB-\	(>4BB-/	Pa-	-cno-	-sier-	2B-\	Pa-	-cno-	-sier-	2f/	Pa-	-cno-	-sier-	2dd\	Pa-	-cno-	-sier-	4b-\	8dd\L
.	.	.	.	.	.	.	.	.	.	.	.	.	.	.	.	.	.	8ff\
4D\	4D/)	.	.	.	.	.	.	.	.	.	.	.	.	.	.	.	8dd\L	8bb-\
.	.	.	.	.	.	.	.	.	.	.	.	.	.	.	.	.	8b-\J	8dd\J
4F\	2F\	-nie	-śći	-ny	2A\	-nie	-ści	-ny	2f/	-nie	-śći	-ny	2cc\	-nie	-ści	-ny	4a\	(8cc\L
.	.	.	.	.	.	.	.	.	.	.	.	.	.	.	.	.	.	8ff\
4FF/	.	.	.	.	.	.	.	.	.	.	.	.	.	.	.	.	8b-\L	8eeX\
.	.	.	.	.	.	.	.	.	.	.	.	.	.	.	.	.	8cc\J	8ee-\J)
!LO:LB:g=original	!	!	!	!	!	!	!	!	!	!	!	!	!	!	!	!	!	!
=5	=5	=5	=5	=5	=5	=5	=5	=5	=5	=5	=5	=5	=5	=5	=5	=5	=5	=5
4BB-/	2B-\	gdzie	Peł-	Kar-	2B-\	gdzie	Peł-	Kar-	2f/	gdzie	Peł-	Kar-	2dd\	gdzie	Peł-	Kar-	4f/	8dd\L
.	.	.	.	.	.	.	.	.	.	.	.	.	.	.	.	.	.	8ddsSsS\
8D/L	.	.	.	.	.	.	.	.	.	.	.	.	.	.	.	.	4r	8ff\
8F/J	.	.	.	.	.	.	.	.	.	.	.	.	.	.	.	.	.	8dd\J
4B-\	4BB-/	ra-	-ne	-mi	4B-\	ra-	-ne	-mi	4f/	ra-	-ne	-mi	4dd\	ra-	-ne	-mi	8r	4b-\
.	.	.	.	.	.	.	.	.	.	.	.	.	.	.	.	.	8d/L	.
4d\	4D/	-da	u-	i	4B-\	-da	u-	i	4f/	-da	u-	i	4dd\	-da	u-	i	8f/	4r
.	.	.	.	.	.	.	.	.	.	.	.	.	.	.	.	.	8d/J	.
!	!	!	!	!	!LO:LB:g=original	!	!	!	!LO:LB:g=original	!	!	!	!	!	!	!	!	!LO:LB:g=original
=6	=6	=6	=6	=6	=6	=6	=6	=6	=6	=6	=6	=6	=6	=6	=6	=6	=6	=6
*	*	*	*	*	*	*	*	*	*2\right	*	*	*	*	*	*	*	*	*
4FF/	2F\	Mędr-	-wiel-	hoy-	2A\	Mędr-	-wiel-	hoy-	2a\	Mędr-	-wiel-	hoy-	2cc\	Mędr-	-wiel-	hoy-	4c/	8r
.	.	.	.	.	.	.	.	.	.	.	.	.	.	.	.	.	.	8ffsSSS\L
8AA/L	.	.	.	.	.	.	.	.	.	.	.	.	.	.	.	.	4r	8aa\
8C/J	.	.	.	.	.	.	.	.	.	.	.	.	.	.	.	.	.	8ff\J
!	!	!	!	!	!	!	!	!	!	!	!	!	!	!	!	!	!LO:LB:g=original	!
=-	=-	=-	=-	=-	=-	=-	=-	=-	=-	=-	=-	=-	=-	=-	=-	=-	=-	=-
4F\	2A\	-cow	-bień	-nie	2c\	-cow	-bień	-nie	2f/	-cow	-bień	-nie	2ff\	-cow	-bień	-nie	8r	4cc\
.	.	.	.	.	.	.	.	.	.	.	.	.	.	.	.	.	8c/L	.
4A\	.	.	.	.	.	.	.	.	.	.	.	.	.	.	.	.	8f/	4r
.	.	.	.	.	.	.	.	.	.	.	.	.	.	.	.	.	8c/J	.
!	!	!	!	!	!	!	!	!	!	!	!	!	!LO:LB:g=original	!	!	!	!	!
=7	=7	=7	=7	=7	=7	=7	=7	=7	=7	=7	=7	=7	=7	=7	=7	=7	=7	=7
4B-\	4B-\	gdzie	wich	bo-	4B-\	gdzie	wich	bo-	4f/	gdzie	wich	bo-	4dd\	gdzie	wich	bo-	8r	8r
.	.	.	.	.	.	.	.	.	.	.	.	.	.	.	.	.	8f/	8dd\
4BB-/	4BB-/	ca-	spra-	-ga-	4d\	ca-	spra-	-ga-	4g/	ca-	spra-	-ga-	4b-\	ca-	spra-	-ga-	8r	8r
.	.	.	.	.	.	.	.	.	.	.	.	.	.	.	.	.	8gg\	8bb-\
4C/	4C/	-ły	-wie-	-ci	4c\	-ły	-wie-	-ci	4f/	-ły	-wie-	-ci	4a\	-ły	-wie-	-ci	8r	8r
.	.	.	.	.	.	.	.	.	.	.	.	.	.	.	.	.	8ff\	8aa\
4C/	4C/	zbor	-dli-	Lud	4B-\	zbór	-dli-	lud	4en/	zbor	-dli-	lud	4g\	zbór	-dli-	lud	8r	8r
.	.	.	.	.	.	.	.	.	.	.	.	.	.	.	.	.	8eeX\	8gg\
=8	=8	=8	=8	=8	=8	=8	=8	=8	=8	=8	=8	=8	=8	=8	=8	=8	=8	=8
2C/	2C/	sta-	-wo-	wier-	2B-\	sta-	-wo-	wier-	2en/	Sta-	-wo-	wier-	2g/	sta-	-wo-	wier-	8r	8r
.	.	.	.	.	.	.	.	.	.	.	.	.	.	.	.	.	(8eeX\L	8gg\L
.	.	.	.	.	.	.	.	.	.	.	.	.	.	.	.	.	8gg\)	8bb-\
.	.	.	.	.	.	.	.	.	.	.	.	.	.	.	.	.	8b-\J	8eeX\J
4FF/	4FF/	-nie	-śći	-ny	4A\	-nie	-ści	-ny	4f/	-nie	-śći	-ny	4f/	-nie	-ści	-ny	4a\	(8ff\L
.	.	.	.	.	.	.	.	.	.	.	.	.	.	.	.	.	.	16gg\L
.	.	.	.	.	.	.	.	.	.	.	.	.	.	.	.	.	.	16ff\JJ)
4r	4r	.	.	.	4r	.	.	.	4r	.	.	.	4r	.	.	.	4r	8ee'\L
.	.	.	.	.	.	.	.	.	.	.	.	.	.	.	.	.	.	8ee-'\J
!	!LO:PB:g=original	!	!	!	!LO:LB:g=original	!	!	!	!LO:LB:g=original	!	!	!	!	!	!	!	!	!
=9||	=9||	=9||	=9||	=9||	=9||	=9||	=9||	=9||	=9||	=9||	=9||	=9||	=9||	=9||	=9||	=9||	=9||	=9||
4DD/	2D\	Wiel-	Je-	Sta-	2A\	Wiel-	Je-	Sta-	2f#X/	Wiel-	Je-	Sta-	2dd\	Wiel-	Je-	Sta-	4f#X/	(8dd\L
.	.	.	.	.	.	.	.	.	.	.	.	.	.	.	.	.	.	8a\)
4D\	.	.	.	.	.	.	.	.	.	.	.	.	.	.	.	.	4r	8dd\
.	.	.	.	.	.	.	.	.	.	.	.	.	.	.	.	.	.	8dd\J
4D\	4d\	-kość	-go	-te-	4A\	-kość	-go	-te-	4f#/	-kość	-go	-te-	4dd\	-kość	-go	-te-	8f#/L	4dd\
.	.	.	.	.	.	.	.	.	.	.	.	.	.	.	.	.	8a/	.
4D\	4d\	nie	nie	-czny	4A\	nie	nie	-czny	4f#/	nie-	nie	-czny	4dd\	nie	nie	-czny	8f#/	4r
.	.	.	.	.	.	.	.	.	.	.	.	.	.	.	.	.	8a/J	.
!	!	!	!	!	!	!	!	!	!	!	!	!	!LO:LB:g=original	!	!	!	!	!
=10	=10	=10	=10	=10	=10	=10	=10	=10	=10	=10	=10	=10	=10	=10	=10	=10	=10	=10
4DD/	2d\	zmier-	prze-	wsło-	2B-\	zmien-	prze-	wsło-	2g\	-zmier-	prze-	wsło-	2dd\	zmien-	prze-	wsło-	4g/	8dd\L
.	.	.	.	.	.	.	.	.	.	.	.	.	.	.	.	.	.	8b-\
4D\	.	.	.	.	.	.	.	.	.	.	.	.	.	.	.	.	4r	8dd\
.	.	.	.	.	.	.	.	.	.	.	.	.	.	.	.	.	.	8dd\J
!	!	!	!	!	!	!	!	!	!	!	!	!	!	!	!	!	!	!LO:LB:g=original
=-	=-	=-	=-	=-	=-	=-	=-	=-	=-	=-	=-	=-	=-	=-	=-	=-	=-	=-
4D\	2d\	-na	-trwa	-wie	2d\	-na	-trwa	-wie	2g\	-na	-trwa	-wie	2b-\	-na	-trwa	-wie	8g/L	4dd\
.	.	.	.	.	.	.	.	.	.	.	.	.	.	.	.	.	8b-/	.
4D\	.	.	.	.	.	.	.	.	.	.	.	.	.	.	.	.	8g/	4r
.	.	.	.	.	.	.	.	.	.	.	.	.	.	.	.	.	8b-/J	.
!LO:LB:g=original	!	!	!	!	!	!	!	!	!	!	!	!	!	!	!	!	!	!
=11	=11	=11	=11	=11	=11	=11	=11	=11	=11	=11	=11	=11	=11	=11	=11	=11	=11	=11
4DD/	4D\	Dzieł	za-	co	4d\	dzieł	za-	co	4f#X/	Dzieł	za-	co	4a\	dzieł	za-	co	8r	8r
.	.	.	.	.	.	.	.	.	.	.	.	.	.	.	.	.	8a\	8ff#X\
4D\	4D\	Bo-	-den	raz	4d\	Bo-	-den	raz	4g/	Bo-	-den	raz	4b-\	Bo-	-den	raz	8r	8r
.	.	.	.	.	.	.	.	.	.	.	.	.	.	.	.	.	8b-\	8gg\
!	!	!	!	!	!	!	!	!	!	!	!	!	!	!	!	!	!LO:LB:g=original	!
=-	=-	=-	=-	=-	=-	=-	=-	=-	=-	=-	=-	=-	=-	=-	=-	=-	=-	=-
4D\	4D\	-ga	a	po-	4d\	-ga	a	po-	4a/	-ga	a	po-	4cc\	-ga	a	po-	8r	8r
.	.	.	.	.	.	.	.	.	.	.	.	.	.	.	.	.	8cc\	8aa\
4D\	4D\	Ja-	na	-sta-	4d\	Ja-	na	-sta-	4g/	Ja-	na	-sta-	4b-\	Ja-	na	-sta-	8r	8r
.	.	.	.	.	.	.	.	.	.	.	.	.	.	.	.	.	8b-\	8bb-\
!	!	!	!	!	!LO:LB:g=original	!	!	!	!	!	!	!	!	!	!	!	!	!
=12	=12	=12	=12	=12	=12	=12	=12	=12	=12	=12	=12	=12	=12	=12	=12	=12	=12	=12
4DD/	2D\	-ko-	zie-	-no-	2d\	-ko-	zie-	-no-	2g/	-ko-	zie-	-no-	2b-\	-kó-	zie-	-no-	8r	8r
.	.	.	.	.	.	.	.	.	.	.	.	.	.	.	.	.	8b-\L	8gg\L
4D\	.	.	.	.	.	.	.	.	.	.	.	.	.	.	.	.	8b-\	8dd\
.	.	.	.	.	.	.	.	.	.	.	.	.	.	.	.	.	8g\J	8b-\J
8D\L	4D\	-ba	-mi	-wił	4d\	-ba	-mi	-wił	4f#X/	-ba	-mi	-wił	4a\	-ba	-mi	-wił	4f#X/	4a\
8D\	.	.	.	.	.	.	.	.	.	.	.	.	.	.	.	.	.	.
8E-\	4r	.	.	.	4r	.	.	.	4r	.	.	.	4r	.	.	.	4r	4r
8En\J	.	.	.	.	.	.	.	.	.	.	.	.	.	.	.	.	.	.
!	!LO:LB:g=original	!	!	!	!	!	!	!	!	!	!	!	!LO:LB:g=original	!	!	!	!	!
=13	=13	=13	=13	=13	=13	=13	=13	=13	=13	=13	=13	=13	=13	=13	=13	=13	=13	=13
!	!	!	!	!	!	!	!	!	!LO:ACC:color=grey	!	!	!	!	!	!	!	!	!
2F\	2F\	Kto-	wie-	wie-	2F/	Kto-	wie-	wie-	2fn/	Kto-	wie-	wie-	2f/	Kto-	wie-	wie-	8r	8r
.	.	.	.	.	.	.	.	.	.	.	.	.	.	.	.	.	8f/L	(8ffsSSS\L
.	.	.	.	.	.	.	.	.	.	.	.	.	.	.	.	.	8g/	8gg\
.	.	.	.	.	.	.	.	.	.	.	.	.	.	.	.	.	8f/J	8ff\J)
4En\	4En\	-re-	-cznie	-czne-	4G/	-re-	-cznie	-czne-	4g/	-re-	-cznie	-czne-	4g/	-re-	-cznie	-czne-	8r	8r
.	.	.	.	.	.	.	.	.	.	.	.	.	.	.	.	.	8g/	8eeX\
4F\	4F\	-mi	pa-	-mi	4c\	-mi	pa-	-mi	4e-X/	-mi	pa-	-mi	4a/	-mi	pa-	-mi	8r	8r
.	.	.	.	.	.	.	.	.	.	.	.	.	.	.	.	.	8a/	8ee-\
!	!	!	!	!	!	!	!	!	!LO:LB:g=original	!	!	!	!	!	!	!	!	!
=14	=14	=14	=14	=14	=14	=14	=14	=14	=14	=14	=14	=14	=14	=14	=14	=14	=14	=14
4G\	2G\	wła-	-mię	cza-	2B-\	wła-	-mię	cza-	2d/	wła-	-mię	cza-	2b-\	wła-	-mię	cza-	8r	8r
.	.	.	.	.	.	.	.	.	.	.	.	.	.	.	.	.	8b-\L	8ddsSsS\L
4GG/	.	.	.	.	.	.	.	.	.	.	.	.	.	.	.	.	8cc\	8ee-\
.	.	.	.	.	.	.	.	.	.	.	.	.	.	.	.	.	8b-\J	8dd\J
4A\	2A\	-dnie	tny	-sy	2A\	-dnie	tny	-sy	2f/	-dnie	tny	-sy	2cc\	-dnie	tny	-sy	4f/	8cc\L
.	.	.	.	.	.	.	.	.	.	.	.	.	.	.	.	.	.	8ccsSSS\
4AA/	.	.	.	.	.	.	.	.	.	.	.	.	.	.	.	.	4cc/	8ff\
.	.	.	.	.	.	.	.	.	.	.	.	.	.	.	.	.	.	8ee-\J
!	!	!	!	!	!LO:LB:g=original	!	!	!	!	!	!	!	!	!	!	!	!	!
=15	=15	=15	=15	=15	=15	=15	=15	=15	=15	=15	=15	=15	=15	=15	=15	=15	=15	=15
4BB-/	4B-\	iak	bę-	te-	4B-\	iak	bę-	te-	4f/	iak	bę-	te-	4dd\	iak	bę-	te-	8f/L	(8dd\L
.	.	.	.	.	.	.	.	.	.	.	.	.	.	.	.	.	8d/J	8bb-\J)
4B-\	4BB-/	mu	-dzie	-go	4d\	mu	-dzie	-go	4f/	mu	-dzie	-go	4dd\	mu	-dzie	-go	8r	8r
.	.	.	.	.	.	.	.	.	.	.	.	.	.	.	.	.	8b-/	8dd|>\
!	!	!	!	!	!	!	!	!	!	!	!	!	!	!	!	!	!	!LO:LB:g=original
=-	=-	=-	=-	=-	=-	=-	=-	=-	=-	=-	=-	=-	=-	=-	=-	=-	=-	=-
4E-\	4E-/	się	cu-	nie	4c\	się	cu-	nie	4g/	sie	cu-	nie	4ee-\	się	cu-	nie	8g/L	(8cc\L
.	.	.	.	.	.	.	.	.	.	.	.	.	.	.	.	.	8e-/J	8gg\J)
4F\	4F/	po-	-dy	od-	4A\	po-	-dy	od-	4e-/	po-	-dy	od-	4cc\	po-	-dy	od-	8r	8r
.	.	.	.	.	.	.	.	.	.	.	.	.	.	.	.	.	8e-/	8a\
!	!	!	!	!	!	!	!	!	!	!	!	!	!LO:LB:g=original	!	!	!	!	!
=16	=16	=16	=16	=16	=16	=16	=16	=16	=16	=16	=16	=16	=16	=16	=16	=16	=16	=16
2FF/	2F\	-do-	swe-	-mo-	2A\	-do-	swe-	-mo-	2e-/	-do-	swe-	-mo-	2cc\	-do-	swe-	-mó-	8A/L	(8ff\L
.	.	.	.	.	.	.	.	.	.	.	.	.	.	.	.	.	8c/	8eeX\
.	.	.	.	.	.	.	.	.	.	.	.	.	.	.	.	.	8f/	8ee-\
.	.	.	.	.	.	.	.	.	.	.	.	.	.	.	.	.	8e-/J	8cc\J)
4BB-/	4BB-/	-ba	-mi	-wił	4B-\	-ba	-mi	-wił	4d/	-ba.	-mi	-wił	4b-\	-ba	-mi	-wił	4d/	4b-\
!LO:TX:a:t=Da\nCapo	!LO:TX:t=[segno]	!	!	!	!LO:TX:a:t=Da Capo	!	!	!	!LO:TX:b:i:t=Da Capo.	!	!	!	!LO:TX:b:i:t=Da Capo.	!	!	!	!LO:TX:a:t=Da Capo	!LO:TX:a:t=Da Capo
4r	4r	.	.	.	4r	.	.	.	4r	.	.	.	4r	.	.	.	4r	4r
!LO:LB:g=original	!LO:LB:g=original	!	!	!	!LO:PB:g=original	!	!	!	!LO:PB:g=original	!	!	!	!LO:PB:g=original	!	!	!	!LO:LB:g=original	!
==	==	==	==	==	==	==	==	==	==	==	==	==	==	==	==	==	==	==
*-	*-	*-	*-	*-	*-	*-	*-	*-	*-	*-	*-	*-	*-	*-	*-	*-	*-	*-
!!!system-decoration: [(s1,s2)][(s3,s4,s5,s6)](s7)
!!!RDF**kern: < = below
!!!RDF**kern: > = above
!!!RDF**kern: | = vertical stroke
!!!AIN: 1 bass 2 clars 1 organ 2 soprn 1 tenor
!!!ENC: Mateusz Solarz
!!!END: 2020-09-29
!!!ENC: Marta Chmielewska
!!!END: 2021-11-18
